src/images/footer/insta_mob.svg

<svg width="31" height="31" viewBox="0 0 31 31" fill="none" xmlns="http://www.w3.org/2000/svg">
<path d="M17.5328 0.247939C18.628 0.243739 19.7233 0.25474 20.8183 0.280938L21.1095 0.291438C21.4457 0.303437 21.7774 0.318437 22.1782 0.336436C23.7752 0.411434 24.8649 0.663425 25.821 1.03391C26.8116 1.4149 27.6461 1.93088 28.4806 2.76485C29.2437 3.51424 29.8342 4.42072 30.2112 5.42126C30.582 6.37673 30.8341 7.46719 30.9092 9.06314C30.9272 9.46213 30.9422 9.79511 30.9542 10.1311L30.9632 10.4221C30.9899 11.5158 31.0014 12.6099 30.9977 13.704L30.9992 14.8229V16.7879C31.0029 17.8824 30.9914 18.977 30.9647 20.0713L30.9557 20.3623C30.9437 20.6982 30.9287 21.0297 30.9107 21.4302C30.8356 23.0262 30.5805 24.1151 30.2112 25.0706C29.8355 26.0722 29.2448 26.9794 28.4806 27.7285C27.7301 28.491 26.8226 29.0811 25.821 29.4579C24.8649 29.8284 23.7752 30.0804 22.1782 30.1554C21.7774 30.1734 21.4457 30.1884 21.1095 30.2004L20.8183 30.2094C19.7233 30.2361 18.6281 30.2476 17.5328 30.2439L16.4131 30.2454H14.4483C13.353 30.2491 12.2577 30.2376 11.1628 30.2109L10.8716 30.2019C10.5153 30.189 10.159 30.174 9.8029 30.1569C8.2059 30.0819 7.11621 29.8269 6.15861 29.4579C5.15701 29.082 4.24977 28.4917 3.50044 27.7285C2.73653 26.979 2.14543 26.0719 1.76835 25.0706C1.39762 24.1151 1.14546 23.0262 1.07041 21.4302C1.0537 21.0743 1.03869 20.7183 1.02539 20.3623L1.01788 20.0713C0.99021 18.977 0.977701 17.8825 0.980358 16.7879V13.704C0.976169 12.6099 0.987177 11.5159 1.01338 10.4221L1.02389 10.1311C1.03589 9.79511 1.0509 9.46213 1.06891 9.06314C1.14396 7.46569 1.39612 6.37823 1.76685 5.42126C2.14415 4.42023 2.73641 3.514 3.50194 2.76635C4.25075 2.00251 5.15742 1.41126 6.15861 1.03391C7.11621 0.663425 8.2044 0.411434 9.8029 0.336436L10.8716 0.291438L11.1628 0.283938C12.2572 0.256298 13.352 0.243798 14.4468 0.246439L17.5328 0.247939ZM15.9898 7.74768C14.9954 7.73363 14.0082 7.91721 13.0854 8.28777C12.1627 8.65832 11.3228 9.20845 10.6147 9.90619C9.90653 10.6039 9.34421 11.4354 8.9604 12.3522C8.57659 13.269 8.37894 14.2529 8.37894 15.2467C8.37894 16.2405 8.57659 17.2244 8.9604 18.1412C9.34421 19.058 9.90653 19.8894 10.6147 20.5872C11.3228 21.2849 12.1627 21.835 13.0854 22.2056C14.0082 22.5761 14.9954 22.7597 15.9898 22.7457C17.9802 22.7457 19.889 21.9555 21.2964 20.5491C22.7038 19.1426 23.4945 17.235 23.4945 15.2459C23.4945 13.2569 22.7038 11.3493 21.2964 9.94281C19.889 8.53633 17.9802 7.74768 15.9898 7.74768ZM15.9898 10.7476C16.5879 10.7366 17.1823 10.8448 17.7381 11.0659C18.2939 11.287 18.8001 11.6166 19.227 12.0354C19.6539 12.4541 19.9931 12.9538 20.2246 13.505C20.4562 14.0562 20.5755 14.6481 20.5756 15.2459C20.5757 15.8438 20.4566 16.4356 20.2252 16.9869C19.9938 17.5383 19.6549 18.038 19.2281 18.4569C18.8013 18.8759 18.2952 19.2056 17.7395 19.4269C17.1837 19.6482 16.5894 19.7566 15.9913 19.7458C14.7971 19.7458 13.6518 19.2717 12.8073 18.4278C11.9629 17.5839 11.4885 16.4394 11.4885 15.2459C11.4885 14.0525 11.9629 12.9079 12.8073 12.0641C13.6518 11.2202 14.7971 10.7461 15.9913 10.7461L15.9898 10.7476ZM23.8697 5.49776C23.3855 5.51713 22.9276 5.72298 22.5918 6.0722C22.2561 6.42142 22.0686 6.88692 22.0686 7.3712C22.0686 7.85548 22.2561 8.32098 22.5918 8.6702C22.9276 9.01942 23.3855 9.22527 23.8697 9.24463C24.3673 9.24463 24.8446 9.0471 25.1964 8.69548C25.5483 8.34386 25.7459 7.86696 25.7459 7.3697C25.7459 6.87243 25.5483 6.39554 25.1964 6.04392C24.8446 5.6923 24.3673 5.49476 23.8697 5.49476V5.49776Z" fill="#3A4551"/>
</svg>

<svg width="31" height="31" fill="none" xmlns="http://www.w3.org/2000/svg"><path d="M17.533.248c1.095-.004 2.19.007 3.285.033l.291.01c.337.012.668.027 1.07.045 1.596.075 2.686.327 3.642.698.99.38 1.825.897 2.66 1.73a7.36 7.36 0 0 1 1.73 2.657c.371.956.623 2.046.698 3.642.018.4.033.732.045 1.068l.01.291c.026 1.094.037 2.188.034 3.282l.001 1.119v1.965c.004 1.094-.008 2.189-.034 3.283l-.01.291c-.011.336-.026.668-.044 1.068-.075 1.596-.33 2.685-.7 3.64a7.324 7.324 0 0 1-1.73 2.659 7.376 7.376 0 0 1-2.66 1.729c-.956.37-2.046.622-3.643.697-.4.018-.732.033-1.069.045l-.29.01c-1.096.026-2.19.038-3.286.034l-1.12.001h-1.965a118.37 118.37 0 0 1-3.285-.034l-.291-.01a90.705 90.705 0 0 1-1.07-.044c-1.596-.075-2.686-.33-3.643-.7A7.34 7.34 0 0 1 3.5 27.729a7.355 7.355 0 0 1-1.732-2.657c-.37-.956-.623-2.045-.698-3.64l-.045-1.069-.007-.29a118.51 118.51 0 0 1-.038-3.284v-3.084c-.004-1.094.007-2.188.033-3.282l.01-.29c.013-.337.028-.67.046-1.069.075-1.597.327-2.685.698-3.642a7.32 7.32 0 0 1 1.735-2.655 7.35 7.35 0 0 1 2.657-1.732C7.116.664 8.204.41 9.803.336l1.069-.045.29-.007c1.095-.028 2.19-.04 3.285-.038l3.086.002Zm-1.543 7.5a7.51 7.51 0 0 0-7.03 4.604 7.495 7.495 0 0 0 4.125 9.854c.923.37 1.91.554 2.905.54 1.99 0 3.899-.79 5.306-2.197A7.497 7.497 0 0 0 15.99 7.748Zm0 3a4.506 4.506 0 0 1 4.235 2.757 4.496 4.496 0 0 1-2.486 5.922c-.555.221-1.15.33-1.748.319a4.504 4.504 0 0 1-4.502-4.5 4.498 4.498 0 0 1 4.502-4.5l-.001.002Zm7.88-5.25a1.877 1.877 0 0 0-1.801 1.873 1.874 1.874 0 0 0 1.8 1.874 1.877 1.877 0 0 0 1.877-1.875 1.874 1.874 0 0 0-1.876-1.875v.003Z" fill="#3A4551"/></svg>
